public/img/gauge.svg

<svg id="svg3336" width="512" height="512" version="1.1" xmlns="http://www.w3.org/2000/svg">
 <path id="path3365" d="m257.61523 20.996094a230.9653 230.9653 0 0 0 -217.037105 151.970706 230.9653 230.9653 0 0 0 68.576175 255.92578l148.04882-176.43946-0.39648-0.4707-124.71289 148.20508a194.01938 193.46861 0 0 1 -57.605469 -214.37695 194.01938 193.46861 0 0 1 182.318359 -127.296878 194.01938 193.46861 0 0 1 182.32031 127.296878 194.01938 193.46861 0 0 1 -57.33203 214.14453l24.28125 28.9375a230.9653 230.9653 0 0 0 68.57617 -255.92578 230.9653 230.9653 0 0 0 -217.03711 -151.970706zm124.17969 378.958986l-124.17969-147.99219-0.41211 0.49023 124.31836 147.73438a194.01938 193.46861 0 0 0 0.27344 -0.23242z" fill="#fff" fill-opacity=".73333335"/>
 <circle id="path3388" cx="257.21136" cy="253.17349" r="16.555204" fill="#fff"/>
 <path id="path3390" transform="matrix(.14590329 0 0 1.4386782 218.90891 -88.684152)" d="m264.07573 88.025233 42.91799 72.937377 42.91798 72.93737-84.62461 0.69938-84.62462 0.69938 41.70663-73.63676z" fill="#fff"/>
 <path id="path3392" d="M 259.23028,187.35647 256,185.74132" fill="none" stroke="#333" stroke-width="1px"/>
</svg>

<?xml version="1.0" encoding="UTF-8" standalone="no"?>
<svg
   xmlns:svg="http://www.w3.org/2000/svg"
   xmlns="http://www.w3.org/2000/svg"
   width="512"
   height="512"
   id="svg3336"
   version="1.1">
  <path
     style="fill:#ffffff;fill-opacity:0.73333335;stroke:none"
     d="M 257.61523 20.996094 A 230.9653 230.9653 0 0 0 40.578125 172.9668 A 230.9653 230.9653 0 0 0 109.1543 428.89258 L 257.20312 252.45312 L 256.80664 251.98242 L 132.09375 400.1875 A 194.01938 193.46861 0 0 1 74.488281 185.81055 A 194.01938 193.46861 0 0 1 256.80664 58.513672 A 194.01938 193.46861 0 0 1 439.12695 185.81055 A 194.01938 193.46861 0 0 1 381.79492 399.95508 L 406.07617 428.89258 A 230.9653 230.9653 0 0 0 474.65234 172.9668 A 230.9653 230.9653 0 0 0 257.61523 20.996094 z M 381.79492 399.95508 L 257.61523 251.96289 L 257.20312 252.45312 L 381.52148 400.1875 A 194.01938 193.46861 0 0 0 381.79492 399.95508 z "
     id="path3365" />
  <circle
     style="fill:#ffffff;fill-opacity:1;stroke:none"
     id="path3388"
     cx="257.21136"
     cy="253.17349"
     r="16.555204" />
  <path
     style="fill:#ffffff;fill-opacity:1;stroke:none"
     id="path3390"
     d="m 264.07573,88.025233 42.91799,72.937377 42.91798,72.93737 -84.62461,0.69938 -84.62462,0.69938 41.70663,-73.63676 z"
     transform="matrix(0.14590329,0,0,1.4386782,218.90891,-88.684152)" />
  <path
     style="fill:none;fill-rule:evenodd;stroke:#333333;stroke-width:1px;stroke-linecap:butt;stroke-linejoin:miter;stroke-opacity:1"
     d="M 259.23028,187.35647 256,185.74132"
     id="path3392" />
</svg>
